X: 1
T: Henrik Bjorslev's
M: 4/4
L: 1/8
R: reel
K: Edor
B|: AF~F2 DF~F2|ABde fede|f2fe dAFA|B2dB BAFB|
AF~F2 DF~F2|ABde fede|f2fe ~f3e|1 dBAF ~E3B:|2 dBAF ~E3g||
~f3e dAFA|B2dB  BA B/c/d|~f3e defg|afbf afeg|
~f3e dAFA|B2dB BA B/c/d|~f3e ~f3e|1 dBAF ~E3g:|2 dBAF E3||
